X: 11574
T: Edmund MacKenzie Of Plockton
R: jig
M: 6/8
K: Amajor
|:c|E2 G A2 c|e^de c3|dcd B^AB|e^de c^Bc|
EFG ABc|e2 e cec|e^de =dcB|A3 A2:|
|:e|f^ef dcd|e^de c3|dcd EGB|e^de c2 e|
f2 A d2 A|e2 A c2 A|Ee^d =dcB|A3- A2:|

